X: 38943
T: Susquehanna, The
R: jig
M: 6/8
K: Dmajor
f2e|:d2d BAB|DAA gfe|d2d BAB|DBB gfe|
ded B2A|def a2b|afe def|1 e3 efe:|2 e3 edc||
B3 BAB|d2c BAF|A3 AFA|ABA FED|
B3 BAB|d2D DEF|E2E FED|E3 Edc|
B3 BAB|d2c BAF|A3 AFA|ABA FED|
B,DB, A,2A|Bdc BAF|E2E FED|E3||

